packages/core/src/svgs/wallets/branded/soul.svg

<svg width="24" height="24" viewBox="0 0 24 24" fill="none" xmlns="http://www.w3.org/2000/svg">
<path d="M18.4547 8.49872H5.6064C5.59493 8.49872 5.58362 8.49872 5.57215 8.49872C3.61467 8.49872 2.02783 10.0676 2.02783 12.0028C2.02783 13.9381 3.61467 15.5069 5.57215 15.5069C5.58362 15.5069 5.5951 15.5066 5.6064 15.5064L18.4547 15.5069C20.4122 15.5069 21.999 13.9381 21.999 12.0028C21.999 10.0676 20.4122 8.49872 18.4547 8.49872Z" fill="url(#paint0_radial_134_462)"/>
<path d="M9.49547 3.03601L3.04016 9.46556C1.65328 10.8469 1.65328 13.0865 3.04016 14.4678C4.42704 15.8491 6.67561 15.8491 8.0625 14.4678L14.5179 8.03827C15.9047 6.65693 15.9047 4.41734 14.5179 3.03601C13.131 1.65466 10.8824 1.65466 9.49547 3.03601Z" fill="url(#paint1_radial_134_462)"/>
<path d="M15.9375 9.53214L9.48217 15.9617C8.0953 17.343 8.0953 19.5826 9.48217 20.9639C10.869 22.3453 13.1176 22.3453 14.5045 20.9639L20.9598 14.5345C22.3467 13.1531 22.3467 10.9135 20.9598 9.53214C19.573 8.15083 17.3244 8.15083 15.9375 9.53214Z" fill="url(#paint2_radial_134_462)"/>
<defs>
<radialGradient id="paint0_radial_134_462" cx="0" cy="0" r="1" gradientUnits="userSpaceOnUse" gradientTransform="translate(19.1129 8.47777) rotate(152.033) scale(12.4957 10.7659)">
<stop stop-color="#FFD8B0"/>
<stop offset="0.359375" stop-color="#FFA3AC"/>
<stop offset="1" stop-color="#FF87CD"/>
</radialGradient>
<radialGradient id="paint1_radial_134_462" cx="0" cy="0" r="1" gradientUnits="userSpaceOnUse" gradientTransform="translate(12.0129 4.89924) rotate(135.115) scale(10.585 12.2915)">
<stop offset="0.25" stop-color="#FF2E79"/>
<stop offset="0.869792" stop-color="#FF8BD1"/>
</radialGradient>
<radialGradient id="paint2_radial_134_462" cx="0" cy="0" r="1" gradientUnits="userSpaceOnUse" gradientTransform="translate(11.8431 18.7435) rotate(-47.6847) scale(13.3933 8.56916)">
<stop offset="0.130208" stop-color="#FF2B9D"/>
<stop offset="0.723958" stop-color="#FF9BBF"/>
<stop offset="0.958333" stop-color="#FAC7BD"/>
</radialGradient>
</defs>
</svg>

<svg xmlns="http://www.w3.org/2000/svg" width="24" height="24" fill="none" viewBox="0 0 24 24">
    <path fill="url(#soul__a)" d="M18.455 8.499H5.572c-1.957 0-3.544 1.569-3.544 3.504s1.587 3.504 3.544 3.504h12.883c1.957 0 3.544-1.569 3.544-3.504s-1.587-3.504-3.544-3.504"/>
    <path fill="url(#soul__b)" d="M9.495 3.036 3.04 9.466a3.527 3.527 0 0 0 0 5.002 3.56 3.56 0 0 0 5.023 0l6.455-6.43a3.527 3.527 0 0 0 0-5.002 3.56 3.56 0 0 0-5.023 0"/>
    <path fill="url(#soul__c)" d="m15.938 9.532-6.456 6.43a3.527 3.527 0 0 0 0 5.002 3.56 3.56 0 0 0 5.023 0l6.455-6.43a3.527 3.527 0 0 0 0-5.002 3.56 3.56 0 0 0-5.023 0"/>
    <defs>
        <radialGradient id="soul__a" cx="0" cy="0" r="1" gradientTransform="rotate(152.033 8.5 6.619)scale(12.4957 10.7659)" gradientUnits="userSpaceOnUse">
            <stop stop-color="#FFD8B0"/>
            <stop offset=".359" stop-color="#FFA3AC"/>
            <stop offset="1" stop-color="#FF87CD"/>
        </radialGradient>
        <radialGradient id="soul__b" cx="0" cy="0" r="1" gradientTransform="rotate(135.115 4.995 4.93)scale(10.585 12.2915)" gradientUnits="userSpaceOnUse">
            <stop offset=".25" stop-color="#FF2E79"/>
            <stop offset=".87" stop-color="#FF8BD1"/>
        </radialGradient>
        <radialGradient id="soul__c" cx="0" cy="0" r="1" gradientTransform="matrix(9.0165 -9.9037 6.33648 5.76884 11.843 18.744)" gradientUnits="userSpaceOnUse">
            <stop offset=".13" stop-color="#FF2B9D"/>
            <stop offset=".724" stop-color="#FF9BBF"/>
            <stop offset=".958" stop-color="#FAC7BD"/>
        </radialGradient>
    </defs>
</svg>
